icons/icn_fondo.svg

<svg width="24" xmlns="http://www.w3.org/2000/svg" height="24" id="screenshot-e387bb83-ae60-800e-8006-366ae6e63e45" viewBox="0 0 24 24" xmlns:xlink="http://www.w3.org/1999/xlink" fill="none" version="1.1"><g id="shape-e387bb83-ae60-800e-8006-366ae6e63e45"><g class="frame-container-wrapper"><g class="frame-container-blur"><g class="frame-container-shadows"><g fill="none"><g class="fills" id="fills-e387bb83-ae60-800e-8006-366ae6e63e45"><rect rx="0" ry="0" x="0" y="0" width="24.000000000000455" height="24" transform="matrix(1, 0, 0, 1, 0, 0)" class="frame-background"/></g><g class="frame-children"><g id="shape-e387bb83-ae60-800e-8006-366ae6e63e53" rx="0" ry="0"><g id="shape-e387bb83-ae60-800e-8006-366ae6e63e54"><g class="fills" id="fills-e387bb83-ae60-800e-8006-366ae6e63e54"><path d="M4.662087440490723,2.0000154972076416L8.338112831115723,2.0000154972076416C9.812722206115723,2.0000154972076416,10.999978065490723,3.1872713565826416,10.999978065490723,4.6620025634765625L10.999978065490723,8.337905883789062C10.999978065490723,9.812759399414062,9.812722206115723,11.000015258789062,8.338112831115723,11.000015258789062L4.662087440490723,11.000015258789062C3.1872339248657227,11.000015258789062,1.9999781847000122,9.812759399414062,1.9999781847000122,8.337905883789062L1.9999781847000122,4.6620025634765625C1.9999781847000122,3.1872713565826416,3.1872339248657227,2.0000154972076416,4.662087440490723,2.0000154972076416Z" style="fill-rule: evenodd; stroke-width: 0.0992188; stroke-miterlimit: 3.8; fill: rgb(0, 0, 0); fill-opacity: 1;"/></g></g><g id="shape-e387bb83-ae60-800e-8006-366ae6e63e55"><g class="fills" id="fills-e387bb83-ae60-800e-8006-366ae6e63e55"><path d="M4.662087440490723,13.000015258789062L8.338112831115723,13.000015258789062C9.812722206115723,13.000015258789062,10.999978065490723,14.187271118164062,10.999978065490723,15.662002563476562L10.999978065490723,19.337905883789062C10.999978065490723,20.812759399414062,9.812722206115723,22.000015258789062,8.338112831115723,22.000015258789062L4.662087440490723,22.000015258789062C3.1872339248657227,22.000015258789062,1.9999781847000122,20.812759399414062,1.9999781847000122,19.337905883789062L1.9999781847000122,15.662002563476562C1.9999781847000122,14.187271118164062,3.1872339248657227,13.000015258789062,4.662087440490723,13.000015258789062Z" style="fill-rule: evenodd; stroke-width: 0.0992188; stroke-miterlimit: 3.8; fill: rgb(0, 0, 0); fill-opacity: 1;"/></g></g><g id="shape-e387bb83-ae60-800e-8006-366ae6e63e56"><g class="fills" id="fills-e387bb83-ae60-800e-8006-366ae6e63e56"><path d="M15.662087440490723,2.0000154972076416L19.33811378479004,2.0000154972076416C20.81272315979004,2.0000154972076416,21.99997901916504,3.1872713565826416,21.99997901916504,4.6620025634765625L21.99997901916504,8.337905883789062C21.99997901916504,9.812759399414062,20.81272315979004,11.000015258789062,19.33811378479004,11.000015258789062L15.662087440490723,11.000015258789062C14.187233924865723,11.000015258789062,12.999978065490723,9.812759399414062,12.999978065490723,8.337905883789062L12.999978065490723,4.6620025634765625C12.999978065490723,3.1872713565826416,14.187233924865723,2.0000154972076416,15.662087440490723,2.0000154972076416Z" style="stop-opacity: 1; vector-effect: none; baseline-shift: baseline; fill-rule: evenodd; overflow: visible; stroke-miterlimit: 3.8; display: inline; stop-color: rgb(0, 0, 0); fill: rgb(0, 0, 0); fill-opacity: 1;"/></g></g><g id="shape-e387bb83-ae60-800e-8006-366ae6e63e57"><g class="fills" id="fills-e387bb83-ae60-800e-8006-366ae6e63e57"><path d="M15.662087440490723,22.000015258789062L19.33811378479004,22.000015258789062C20.81272315979004,22.000015258789062,21.99997901916504,20.812759399414062,21.99997901916504,19.337905883789062L21.99997901916504,15.662002563476562C21.99997901916504,14.187271118164062,20.81272315979004,13.000015258789062,19.33811378479004,13.000015258789062L15.662087440490723,13.000015258789062C14.187233924865723,13.000015258789062,12.999978065490723,14.187271118164062,12.999978065490723,15.662002563476562L12.999978065490723,19.337905883789062C12.999978065490723,20.812759399414062,14.187233924865723,22.000015258789062,15.662087440490723,22.000015258789062Z" style="fill-rule: evenodd; stroke-width: 0.0992188; stroke-miterlimit: 3.8; fill: rgb(0, 0, 0); fill-opacity: 1;"/></g></g></g></g></g></g></g></g></g></svg>

<svg fill="none" viewBox="0 0 24 24"><g class="frame-container-wrapper"><g class="frame-container-blur"><g class="frame-container-shadows"><g class="fills"><rect width="24" height="24" class="frame-background" rx="0" ry="0"/></g><g class="frame-children"><path fill="#000" fill-rule="evenodd" d="M4.662 2h3.6761A2.6561 2.6561 0 0 1 11 4.662v3.676A2.6562 2.6562 0 0 1 8.338 11h-3.676A2.6562 2.6562 0 0 1 2 8.338V4.662A2.6562 2.6562 0 0 1 4.662 2ZM4.662 13h3.6761A2.6561 2.6561 0 0 1 11 15.662v3.676A2.6562 2.6562 0 0 1 8.338 22h-3.676A2.6562 2.6562 0 0 1 2 19.338v-3.676A2.6562 2.6562 0 0 1 4.662 13Z" class="fills"/><path fill="#000" fill-rule="evenodd" d="M15.662 2h3.6761A2.6561 2.6561 0 0 1 22 4.662v3.676A2.6562 2.6562 0 0 1 19.338 11h-3.676A2.6562 2.6562 0 0 1 13 8.338V4.662A2.6562 2.6562 0 0 1 15.662 2Z" class="fills" overflow="visible"/><path fill="#000" fill-rule="evenodd" d="M15.662 22h3.6761A2.6562 2.6562 0 0 0 22 19.338v-3.676A2.6561 2.6561 0 0 0 19.338 13h-3.676A2.6562 2.6562 0 0 0 13 15.662v3.676A2.6562 2.6562 0 0 0 15.662 22Z" class="fills"/></g></g></g></g></svg>
